X:1
T:Title
%%score { ( 1 3 ) | ( 2 4 ) }
L:1/8
Q:1/4=75
M:6/8
K:G
V:1 treble nm="Grand Piano"
V:3 treble 
V:2 bass 
V:4 bass 
V:1
 [B,D]>[CE][B,D] DED | [B,D][_B,^C][=B,D] [DB]3 | BAA ABA | [^CA][EG][CE] D3 | D>ED DED | %5
w: W.~H.~Doane * * * * *|||||
 [B,D][B,G][DB] [=Fd]3 | [Ec][EB][EA] GBB | B2 A [B,G]3 | .[FA]6 | B2 c d3 | d3 BAG | [FA]6 | %12
w: |||||||
 .[FA]6 | B3 d2 B | d3 BAG | [FA]6 | D>ED DED | [B,D][B,G][DB] [=Fd]3 | [Ec][EB][EA] GBB | %19
w: |||||||
[M:7/4] B2 A [B,G]3 z2 z2 z4 |] %20
w: |
V:2
 [G,,G,]>[G,,G,][G,,G,] [D,F,C][D,F,C][D,F,C] | [G,,G,][G,,G,][G,,G,] [G,,G,]3 | %2
 [D,G,D][D,F,D][D,F,D] [D,F,D][D,G,D][D,F,D] | [A,,E,][A,,A,][A,,G,] [D,F,]3 | %4
 [G,B,]>[G,C][G,B,] [D,F,C][D,F,C][D,F,C] | [G,,G,][G,,G,][G,,G,] [B,,G,]3 | %6
 [C,G,][C,^G,][C,A,] [D,B,D][D,=G,D][D,G,D] | [D,F,D]2 [D,F,C] [G,,G,]3 | [D,C]D,D, D,[D,D][D,D] | %9
 [G,DG]2 [G,A,G] [G,B,G]3 | [G,B,G]3 [DG][CD][K:bass][G,B,D] | [D,D]6 | [D,C]D,D, D,[D,D][D,D] | %13
 [G,DG]3 [G,B,G]2 [G,DG] | [G,B,G]3 [DG][CD][K:bass][G,B,D] | .[D,D]6 | %16
 [G,B,]>[G,C][G,B,] [D,F,C][D,F,C][D,F,C] | [G,,G,][G,,G,][G,,G,] [B,,G,]3 | %18
 [C,G,][C,^G,][C,A,] [D,B,D][D,=G,D][D,G,D] |[M:7/4] [D,F,D]2 [D,F,C] [G,,G,]3 z2 z2 z4 |] %20
V:3
 x6 | x6 | x6 | x6 | x6 | x6 | x6 | x6 | z CA, D[EG][FA] | x6 | x6 | x6 | z CA, D[EG][FA] | x6 | %14
 x6 | z3 z CA, | x6 | x6 | x6 |[M:7/4] x14 |] %20
V:4
 x6 | x6 | x6 | x6 | x6 | x6 | x6 | x6 | x6 | x6 | z3 .G,3[K:bass] | x6 | x6 | x6 | %14
 z3 .G,3[K:bass] | x6 | x6 | x6 | x6 |[M:7/4] x14 |] %20

